src/icons/solid/navigation/chevron-right.svg

<svg width="24" height="24" viewBox="0 0 24 24" fill="none" xmlns="http://www.w3.org/2000/svg">
<path d="M7.01987 23C6.63484 23 6.23967 22.8544 5.94583 22.5728C5.34801 22 5.34801 21.0777 5.94583 20.5146L14.832 12L5.94583 3.48543C5.34801 2.91262 5.34801 1.99029 5.94583 1.42718C6.54365 0.864074 7.50624 0.854365 8.09392 1.42718L18.0542 10.9709C18.3379 11.2427 18.5 11.6116 18.5 12C18.5 12.3883 18.3379 12.7573 18.0542 13.0291L8.09392 22.5728C7.80008 22.8544 7.40491 23 7.01987 23Z" fill="#3C3B44"/>
</svg>

<svg xmlns="http://www.w3.org/2000/svg" width="24" height="24" fill="none" viewBox="0 0 24 24"><path fill="currentColor" d="M7.02 23c-.385 0-.78-.146-1.074-.427a1.405 1.405 0 0 1 0-2.058L14.832 12 5.946 3.485a1.405 1.405 0 0 1 0-2.058c.598-.563 1.56-.573 2.148 0l9.96 9.544c.284.272.446.64.446 1.029s-.162.757-.446 1.03l-9.96 9.543A1.56 1.56 0 0 1 7.02 23"/></svg>
